assets/images/clarity_chat-bubble-solid.svg

<svg width="32" height="32" viewBox="0 0 32 32" fill="none" xmlns="http://www.w3.org/2000/svg">
<path d="M16 2.22223C8.15999 2.22223 1.77777 7.80445 1.77777 14.6667C1.77777 21.5289 8.15999 27.1111 16 27.1111C17.4668 27.1094 18.9264 26.906 20.3378 26.5067L25.2533 29.6356C25.3875 29.7217 25.5424 29.7701 25.7017 29.7757C25.8611 29.7814 26.019 29.7441 26.159 29.6678C26.2989 29.5914 26.4158 29.4788 26.4973 29.3418C26.5788 29.2048 26.6219 29.0483 26.6222 28.8889V22.9067C27.7344 21.8397 28.622 20.5611 29.2326 19.1459C29.8432 17.7308 30.1646 16.2079 30.1778 14.6667C30.2222 7.80445 23.84 2.22223 16 2.22223ZM23.1111 14.6667C23.1111 14.9024 23.0175 15.1285 22.8508 15.2952C22.6841 15.4619 22.458 15.5556 22.2222 15.5556H9.77777C9.54202 15.5556 9.31593 15.4619 9.14923 15.2952C8.98253 15.1285 8.88888 14.9024 8.88888 14.6667C8.88888 14.4309 8.98253 14.2048 9.14923 14.0381C9.31593 13.8714 9.54202 13.7778 9.77777 13.7778H22.2222C22.458 13.7778 22.6841 13.8714 22.8508 14.0381C23.0175 14.2048 23.1111 14.4309 23.1111 14.6667ZM20.2222 19.1111C20.2222 19.3469 20.1286 19.573 19.9619 19.7397C19.7952 19.9064 19.5691 20 19.3333 20H12.6667C12.4309 20 12.2048 19.9064 12.0381 19.7397C11.8714 19.573 11.7778 19.3469 11.7778 19.1111C11.7778 18.8754 11.8714 18.6493 12.0381 18.4826C12.2048 18.3159 12.4309 18.2222 12.6667 18.2222H19.3333C19.5691 18.2222 19.7952 18.3159 19.9619 18.4826C20.1286 18.6493 20.2222 18.8754 20.2222 19.1111ZM9.13777 10.2222C9.13777 9.98648 9.23142 9.76039 9.39812 9.59369C9.56482 9.42699 9.79091 9.33334 10.0267 9.33334H21.9733C22.2091 9.33334 22.4352 9.42699 22.6019 9.59369C22.7686 9.76039 22.8622 9.98648 22.8622 10.2222C22.8622 10.458 22.7686 10.6841 22.6019 10.8508C22.4352 11.0175 22.2091 11.1111 21.9733 11.1111H10.0267C9.79091 11.1111 9.56482 11.0175 9.39812 10.8508C9.23142 10.6841 9.13777 10.458 9.13777 10.2222Z" fill="#3F3F40"/>
</svg>

<svg width="32" height="32" fill="none" xmlns="http://www.w3.org/2000/svg"><path d="M16 2.222c-7.84 0-14.222 5.582-14.222 12.445C1.778 21.529 8.16 27.11 16 27.11a16.003 16.003 0 004.338-.604l4.915 3.129a.888.888 0 001.37-.747v-5.982a11.555 11.555 0 003.555-8.24C30.222 7.804 23.84 2.222 16 2.222zm7.111 12.445a.889.889 0 01-.889.889H9.778a.889.889 0 010-1.778h12.444a.889.889 0 01.89.889zm-2.889 4.444a.889.889 0 01-.889.889h-6.666a.889.889 0 110-1.778h6.666a.889.889 0 01.89.89zM9.138 10.222a.889.889 0 01.889-.889h11.946a.889.889 0 110 1.778H10.027a.889.889 0 01-.89-.889z" fill="#3F3F40"/></svg>
